src/assets/images/tutorial-airgap/0-download-install.svg

<svg xmlns="http://www.w3.org/2000/svg" xmlns:xlink="http://www.w3.org/1999/xlink" width="304" height="517" viewBox="0 0 304 517">
  <defs>
    <path id="0-download-install-b" d="M72,0 L250.76298,-3.55271368e-15 C265.674668,-6.29194637e-15 277.76298,12.0883118 277.76298,27 L277.76298,446 C277.76298,460.911688 265.674668,473 250.76298,473 L72,473 C57.0883118,473 45,460.911688 45,446 L45,27 C45,12.0883118 57.0883118,-8.13480987e-16 72,-3.55271368e-15 Z"/>
    <filter id="0-download-install-a" width="120.6%" height="110.1%" x="-10.3%" y="-5.1%" filterUnits="objectBoundingBox">
      <feOffset in="SourceAlpha" result="shadowOffsetOuter1"/>
      <feGaussianBlur in="shadowOffsetOuter1" result="shadowBlurOuter1" stdDeviation="8"/>
      <feColorMatrix in="shadowBlurOuter1" values="0 0 0 0 0.105882353   0 0 0 0 0.266666667   0 0 0 0 0.474509804  0 0 0 0.15 0"/>
    </filter>
    <linearGradient id="0-download-install-c" x1="0%" x2="100.01%" y1="49.995%" y2="49.995%">
      <stop offset="0%" stop-color="#00E8CC"/>
      <stop offset="95%" stop-color="#00E8CC"/>
    </linearGradient>
    <linearGradient id="0-download-install-d" x1="21208%" x2="26123%" y1="6303%" y2="6303%">
      <stop offset="0%" stop-color="#00E8CC"/>
      <stop offset="95%" stop-color="#00E8CC"/>
    </linearGradient>
    <linearGradient id="0-download-install-e" x1="22730%" x2="26123%" y1="45931%" y2="45931%">
      <stop offset="0%" stop-color="#00E8CC"/>
      <stop offset="95%" stop-color="#00E8CC"/>
    </linearGradient>
    <path id="0-download-install-g" d="M25.1022,419 L46.8978,419 C54.126,419 57.7392,419 61.6302,420.23 C65.8782,421.7762 69.2238,425.1218 70.77,429.3698 C72,433.2602 72,436.8746 72,444.1022 L72,465.8978 C72,473.126 72,476.7392 70.77,480.6302 C69.2238,484.8782 65.8782,488.2238 61.6302,489.7694 C57.7392,491 54.126,491 46.8978,491 L25.1022,491 C17.874,491 14.2602,491 10.3698,489.7694 C6.1218,488.2238 2.7762,484.8782 1.23,480.6302 C0,476.7392 0,473.126 0,465.8978 L0,444.1022 C0,436.8746 0,433.2602 1.23,429.3698 C2.7762,425.1218 6.1218,421.7762 10.3698,420.23 C14.2602,419 17.874,419 25.1022,419 L25.1022,419"/>
    <filter id="0-download-install-f" width="141.7%" height="141.7%" x="-20.8%" y="-20.8%" filterUnits="objectBoundingBox">
      <feOffset in="SourceAlpha" result="shadowOffsetOuter1"/>
      <feGaussianBlur in="shadowOffsetOuter1" result="shadowBlurOuter1" stdDeviation="5"/>
      <feColorMatrix in="shadowBlurOuter1" values="0 0 0 0 0.305882353   0 0 0 0 0.352941176   0 0 0 0 0.4  0 0 0 0.4 0"/>
    </filter>
    <linearGradient id="0-download-install-h" x1="21208%" x2="25877.25%" y1="6303%" y2="6303%">
      <stop offset="0%" stop-color="#FFF"/>
      <stop offset="100%" stop-color="#00E8CC"/>
    </linearGradient>
  </defs>
  <g fill="none" fill-rule="evenodd" transform="translate(10 16)">
    <use fill="#000" filter="url(#0-download-install-a)" xlink:href="#0-download-install-b"/>
    <use fill="#001833" xlink:href="#0-download-install-b"/>
    <path fill="#6948A1" d="M62,57 L259.549812,57 C261.206666,57 262.549812,58.3431458 262.549812,60 L262.549812,415.816733 C262.549812,417.473587 261.206666,418.816733 259.549812,418.816733 L62,418.816733 C60.3431458,418.816733 59,417.473587 59,415.816733 L59,60 C59,58.3431458 60.3431458,57 62,57 Z"/>
    <g fill-rule="nonzero" transform="translate(143 218)">
      <path fill="#311B58" d="M15.9953541,0.869667319 C15.9953541,0.116634051 15.4603924,-0.189432485 14.8066378,0.190215264 C14.8066378,0.190215264 12.2891711,1.65401174 10.3853369,2.55342466 C8.09837571,3.63600783 4.49997174,4.58864971 2.22323779,5.02935421 C0.743439387,5.31506849 0.531028134,6.25675147 0.458650966,7.1334638 C0.349298506,8.46418787 0.276134629,10.0782779 0.234439087,11.4105675 C0.126660044,14.8704501 -0.183303045,18.4853229 0.191170128,21.9311155 C0.416168715,24.0007828 0.986532266,26.3342466 1.95969049,28.1933464 C3.37040881,30.9044425 5.23783352,33.3548115 7.48080966,35.4379648 C9.74102274,37.5272016 14.7484214,39.8536204 14.7484214,39.8536204 C15.434431,40.1722114 15.9961408,39.8168297 15.9961408,39.0630137 L15.9953541,0.869667319 Z"/>
      <path fill="#00E8CC" d="M10.3467882,4.64500978 C7.06778778,5.93189824 2.35147125,7.01056751 2.35147125,7.01056751 C2.21458399,8.74363992 2.07848345,10.4853229 2.02498728,12.2246575 C1.92900886,15.3088063 1.65287424,18.5307241 1.98643857,21.6023483 C2.1870492,23.4473581 2.69447609,25.5272016 3.55985527,27.1827789 C4.82252216,29.5937378 6.47067615,32.0093933 8.48150268,33.8669276 C10.4923292,35.7244618 13.0341839,36.9393346 15.5036614,38.0845401 L15.992994,38.3099804 L15.992994,1.97651663 C14.1699303,2.98469142 12.2840243,3.87600273 10.3467882,4.64500978 Z"/>
      <path fill="#311B58" d="M20.0075667,39.0606654 C20.0075667,39.8136986 20.5684897,40.1690802 21.2544994,39.8489237 C21.2544994,39.8489237 26.2390835,37.5248532 28.5000833,35.4348337 C30.743071,33.3516908 32.6104973,30.9013197 34.0212024,28.1902153 C34.9943607,26.3334638 35.5647242,24 35.7897228,21.9279843 C36.164196,18.4837573 35.8542329,14.867319 35.7464538,11.4074364 C35.7047583,10.0767123 35.6323811,8.46027397 35.522242,7.13033268 C35.4498648,6.25362035 35.2374535,5.3111546 33.7576551,5.02622309 C31.4817079,4.58630137 27.8825172,3.63209393 25.595556,2.55029354 C23.707456,1.6555773 21.1970697,0.201956947 21.1970697,0.201956947 C20.543315,-0.177690802 20.0075667,0.128375734 20.0075667,0.881409002 L20.0075667,39.0606654 Z"/>
      <path fill="#50239F" d="M20.4795917,38.0845401 C22.9482825,36.9393346 25.4862036,35.7291585 27.5009637,33.8669276 C29.5157237,32.0046967 31.1599442,29.5937378 32.4226111,27.1827789 C33.2879902,25.5272016 33.798564,23.4473581 33.9960278,21.6023483 C34.3295921,18.5307241 34.0534575,15.3088063 33.9574791,12.2246575 C33.9031962,10.4853229 33.7670956,8.7444227 33.6309951,7.01056751 C33.6309951,7.01056751 28.9154653,5.93189824 25.6364649,4.64500978 C23.7044567,3.87780441 21.8235578,2.98885302 20.0052065,1.98356164 L20.0052065,38.3013699 L20.4795917,38.0845401 Z"/>
      <polygon fill="url(#0-download-install-c)" points="12.886 14.236 20.996 14.236 20.996 22.852 12.886 22.852"/>
      <g transform="translate(6 3)">
        <path fill="#00E8CC" d="M17.8641088 8.13367322L2.33393421 8.13367322C1.14147923 8.11080993.186525574 7.11842765.186525574 5.90209866.186525574 4.68576968 1.14147923 3.6933874 2.33393421 3.67052411L17.8641088 3.67052411C19.0565637 3.6933874 20.0115174 4.68576968 20.0115174 5.90209866 20.0115174 7.11842765 19.0565637 8.11080993 17.8641088 8.13367322zM17.1433577 22.4813687L2.33393421 22.4813687C1.047287 22.4813687.00425335923 21.4176405.00425335923 20.1054654.00425335923 18.7932902 1.047287 17.7295621 2.33393421 17.7295621L17.1433577 17.7295621C18.4300049 17.7295621 19.4730386 18.7932902 19.4730386 20.1054654 19.4730386 21.4176405 18.4300049 22.4813687 17.1433577 22.4813687z"/>
        <path fill="#50239F" d="M17.8641088,26.9476725 L7.93754166,26.9476725 C6.74508668,26.9248092 5.79013303,25.9324269 5.79013303,24.7160979 C5.79013303,23.499769 6.74508668,22.5073867 7.93754166,22.4845234 L17.8641088,22.4845234 C19.0565637,22.5073867 20.0115174,23.499769 20.0115174,24.7160979 C20.0115174,25.9324269 19.0565637,26.9248092 17.8641088,26.9476725 Z"/>
        <path fill="url(#0-download-install-d)" d="M10.2312623,2.17124041 C10.2312623,1.3407587 10.2312623,0.00315472635 10.2312623,0.00315472635 L9.05269512,0.0725587061 L9.05269512,3.94340794 L12.8536516,3.94340794 L12.8536516,3.67446752 L11.7052446,3.67446752 C10.8911867,3.67446752 10.2312623,3.00144982 10.2312623,2.17124041 Z"/>
        <path fill="url(#0-download-install-e)" d="M10.2312623,33.8880705 C10.2312623,34.7185522 10.2312623,34.1546448 10.2312623,34.1546448 L10.2312623,32.1640125 L12.8536516,32.1151143 L12.8536516,32.3848434 L11.7052446,32.3848434 C11.3143202,32.3848434 10.939407,32.5432186 10.6629817,32.8251284 C10.3865564,33.1070382 10.2312623,33.4893899 10.2312623,33.8880705 Z"/>
        <path fill="#50239F" d="M15.5935883,14.7270513 L8.03343558,14.7270513 C6.26487841,14.6991748 4.84550811,13.2290978 4.84550811,11.4252358 C4.84550811,9.62137388 6.26487841,8.15129689 8.03343558,8.12342035 L15.5935883,8.12342035 C17.3621454,8.15129689 18.7815157,9.62137388 18.7815157,11.4252358 C18.7815157,13.2290978 17.3621454,14.6991748 15.5935883,14.7270513 Z"/>
        <path fill="#00E8CC" d="M15.2734263,32.3801113 L8.62271917,32.3801113 C7.14921448,32.3801113 5.95470292,31.1618998 5.95470292,29.6591598 C5.95470292,28.1564198 7.14921448,26.9382083 8.62271917,26.9382083 L15.2734263,26.9382083 C16.746931,26.9382083 17.9414426,28.1564198 17.9414426,29.6591598 C17.9414426,31.1618998 16.746931,32.3801113 15.2734263,32.3801113 Z"/>
        <path fill="#50239F" d="M21.9566137,17.7295621 L12.0300466,17.7295621 C11.1212962,17.7096221 10.3948108,16.9526106 10.3948108,16.0256155 C10.3948108,15.0986204 11.1212962,14.3416089 12.0300466,14.321669 L21.9566137,14.321669 C22.5621008,14.3083832 23.1272532,14.6302166 23.4338199,15.1628831 C23.7403866,15.6955497 23.7403866,16.3556813 23.4338199,16.8883479 C23.1272532,17.4210145 22.5621008,17.7428478 21.9566137,17.7295621 Z"/>
      </g>
    </g>
    <ellipse cx="160.439" cy="444.733" fill="#001833" stroke="#4E5A66" stroke-width="2" rx="18.376" ry="17.902"/>
    <use fill="#000" filter="url(#0-download-install-f)" xlink:href="#0-download-install-g"/>
    <use fill="#FFF" xlink:href="#0-download-install-g"/>
    <path fill="#311B58" fill-rule="nonzero" d="M33.9953541,435.869667 C33.9953541,435.116634 33.4603924,434.810568 32.8066378,435.190215 C32.8066378,435.190215 30.2891711,436.654012 28.3853369,437.553425 C26.0983757,438.636008 22.4999717,439.58865 20.2232378,440.029354 C18.7434394,440.315068 18.5310281,441.256751 18.458651,442.133464 C18.3492985,443.464188 18.2761346,445.078278 18.2344391,446.410568 C18.12666,449.87045 17.816697,453.485323 18.1911701,456.931115 C18.4161687,459.000783 18.9865323,461.334247 19.9596905,463.193346 C21.3704088,465.904443 23.2378335,468.354812 25.4808097,470.437965 C27.7410227,472.527202 32.7484214,474.85362 32.7484214,474.85362 C33.434431,475.172211 33.9961408,474.81683 33.9961408,474.063014 L33.9953541,435.869667 Z"/>
    <path fill="#FFF" fill-rule="nonzero" d="M28.3467882,439.64501 C25.0677878,440.931898 20.3514712,442.010568 20.3514712,442.010568 C20.214584,443.74364 20.0784835,445.485323 20.0249873,447.224658 C19.9290089,450.308806 19.6528742,453.530724 19.9864386,456.602348 C20.1870492,458.447358 20.6944761,460.527202 21.5598553,462.182779 C22.8225222,464.593738 24.4706761,467.009393 26.4815027,468.866928 C28.4923292,470.724462 31.0341839,471.939335 33.5036614,473.08454 L33.992994,473.30998 L33.992994,436.976517 C32.1699303,437.984691 30.2840243,438.876003 28.3467882,439.64501 Z"/>
    <path fill="#311B58" fill-rule="nonzero" d="M38.0075667,474.060665 C38.0075667,474.813699 38.5684897,475.16908 39.2544994,474.848924 C39.2544994,474.848924 44.2390835,472.524853 46.5000833,470.434834 C48.743071,468.351691 50.6104973,465.90132 52.0212024,463.190215 C52.9943607,461.333464 53.5647242,459 53.7897228,456.927984 C54.164196,453.483757 53.8542329,449.867319 53.7464538,446.407436 C53.7047583,445.076712 53.6323811,443.460274 53.522242,442.130333 C53.4498648,441.25362 53.2374535,440.311155 51.7576551,440.026223 C49.4817079,439.586301 45.8825172,438.632094 43.595556,437.550294 C41.707456,436.655577 39.1970697,435.201957 39.1970697,435.201957 C38.543315,434.822309 38.0075667,435.128376 38.0075667,435.881409 L38.0075667,474.060665 Z"/>
    <path fill="#50239F" fill-rule="nonzero" d="M38.4795917,473.08454 C40.9482825,471.939335 43.4862036,470.729159 45.5009637,468.866928 C47.5157237,467.004697 49.1599442,464.593738 50.4226111,462.182779 C51.2879902,460.527202 51.798564,458.447358 51.9960278,456.602348 C52.3295921,453.530724 52.0534575,450.308806 51.9574791,447.224658 C51.9031962,445.485323 51.7670956,443.744423 51.6309951,442.010568 C51.6309951,442.010568 46.9154653,440.931898 43.6364649,439.64501 C41.7044567,438.877804 39.8235578,437.988853 38.0052065,436.983562 L38.0052065,473.30137 L38.4795917,473.08454 Z"/>
    <polygon fill="#FFF" fill-rule="nonzero" points="30.886 449.236 38.996 449.236 38.996 457.852 30.886 457.852"/>
    <path fill="#FFF" fill-rule="nonzero" d="M41.8641088 446.133673L26.3339342 446.133673C25.1414792 446.11081 24.1865256 445.118428 24.1865256 443.902099 24.1865256 442.68577 25.1414792 441.693387 26.3339342 441.670524L41.8641088 441.670524C43.0565637 441.693387 44.0115174 442.68577 44.0115174 443.902099 44.0115174 445.118428 43.0565637 446.11081 41.8641088 446.133673zM41.1433577 460.481369L26.3339342 460.481369C25.047287 460.481369 24.0042534 459.417641 24.0042534 458.105465 24.0042534 456.79329 25.047287 455.729562 26.3339342 455.729562L41.1433577 455.729562C42.4300049 455.729562 43.4730386 456.79329 43.4730386 458.105465 43.4730386 459.417641 42.4300049 460.481369 41.1433577 460.481369z"/>
    <path fill="#50239F" fill-rule="nonzero" d="M41.8641088,464.947672 L31.9375417,464.947672 C30.7450867,464.924809 29.790133,463.932427 29.790133,462.716098 C29.790133,461.499769 30.7450867,460.507387 31.9375417,460.484523 L41.8641088,460.484523 C43.0565637,460.507387 44.0115174,461.499769 44.0115174,462.716098 C44.0115174,463.932427 43.0565637,464.924809 41.8641088,464.947672 Z"/>
    <path fill="url(#0-download-install-h)" fill-rule="nonzero" d="M34.2312623,440.17124 C34.2312623,439.340759 34.2312623,438.003155 34.2312623,438.003155 L33.0526951,438.072559 L33.0526951,441.943408 L36.8536516,441.943408 L36.8536516,441.674468 L35.7052446,441.674468 C34.8911867,441.674468 34.2312623,441.00145 34.2312623,440.17124 Z"/>
    <path fill="#FFF" fill-rule="nonzero" d="M34.2312623,471.88807 C34.2312623,472.718552 34.2312623,472.154645 34.2312623,472.154645 L34.2312623,470.164013 L36.8536516,470.115114 L36.8536516,470.384843 L35.7052446,470.384843 C35.3143202,470.384843 34.939407,470.543219 34.6629817,470.825128 C34.3865564,471.107038 34.2312623,471.48939 34.2312623,471.88807 Z"/>
    <path fill="#50239F" fill-rule="nonzero" d="M39.5935883,452.727051 L32.0334356,452.727051 C30.2648784,452.699175 28.8455081,451.229098 28.8455081,449.425236 C28.8455081,447.621374 30.2648784,446.151297 32.0334356,446.12342 L39.5935883,446.12342 C41.3621454,446.151297 42.7815157,447.621374 42.7815157,449.425236 C42.7815157,451.229098 41.3621454,452.699175 39.5935883,452.727051 Z"/>
    <path fill="#FFF" fill-rule="nonzero" d="M39.2734263,470.380111 L32.6227192,470.380111 C31.1492145,470.380111 29.9547029,469.1619 29.9547029,467.65916 C29.9547029,466.15642 31.1492145,464.938208 32.6227192,464.938208 L39.2734263,464.938208 C40.746931,464.938208 41.9414426,466.15642 41.9414426,467.65916 C41.9414426,469.1619 40.746931,470.380111 39.2734263,470.380111 Z"/>
    <path fill="#50239F" fill-rule="nonzero" d="M45.9566137,455.729562 L36.0300466,455.729562 C35.1212962,455.709622 34.3948108,454.952611 34.3948108,454.025616 C34.3948108,453.09862 35.1212962,452.341609 36.0300466,452.321669 L45.9566137,452.321669 C46.5621008,452.308383 47.1272532,452.630217 47.4338199,453.162883 C47.7403866,453.69555 47.7403866,454.355681 47.4338199,454.888348 C47.1272532,455.421014 46.5621008,455.742848 45.9566137,455.729562 Z"/>
  </g>
</svg>

<svg xmlns="http://www.w3.org/2000/svg" xmlns:xlink="http://www.w3.org/1999/xlink" width="304" height="517"><defs><path id="b" d="M72 0h178.763c14.912 0 27 12.088 27 27v419c0 14.912-12.088 27-27 27H72c-14.912 0-27-12.088-27-27V27C45 12.088 57.088 0 72 0z"/><filter id="a" width="120.6%" height="110.1%" x="-10.3%" y="-5.1%" filterUnits="objectBoundingBox"><feOffset in="SourceAlpha" result="shadowOffsetOuter1"/><feGaussianBlur in="shadowOffsetOuter1" result="shadowBlurOuter1" stdDeviation="8"/><feColorMatrix in="shadowBlurOuter1" values="0 0 0 0 0.105882353 0 0 0 0 0.266666667 0 0 0 0 0.474509804 0 0 0 0.15 0"/></filter><linearGradient id="c" x1="0%" x2="100.01%" y1="49.995%" y2="49.995%"><stop offset="0%" stop-color="#00E8CC"/><stop offset="95%" stop-color="#00E8CC"/></linearGradient><linearGradient id="d" x1="21208%" x2="26123%" y1="6303%" y2="6303%"><stop offset="0%" stop-color="#00E8CC"/><stop offset="95%" stop-color="#00E8CC"/></linearGradient><linearGradient id="e" x1="22730%" x2="26123%" y1="45931%" y2="45931%"><stop offset="0%" stop-color="#00E8CC"/><stop offset="95%" stop-color="#00E8CC"/></linearGradient><path id="g" d="M25.102 419h21.796c7.228 0 10.841 0 14.732 1.23a15.292 15.292 0 0 1 9.14 9.14C72 433.26 72 436.875 72 444.102v21.796c0 7.228 0 10.841-1.23 14.732a15.29 15.29 0 0 1-9.14 9.14C57.74 491 54.126 491 46.898 491H25.102c-7.228 0-10.842 0-14.732-1.23a15.29 15.29 0 0 1-9.14-9.14C0 476.74 0 473.126 0 465.898v-21.796c0-7.227 0-10.842 1.23-14.732a15.292 15.292 0 0 1 9.14-9.14C14.26 419 17.874 419 25.102 419"/><filter id="f" width="141.7%" height="141.7%" x="-20.8%" y="-20.8%" filterUnits="objectBoundingBox"><feOffset in="SourceAlpha" result="shadowOffsetOuter1"/><feGaussianBlur in="shadowOffsetOuter1" result="shadowBlurOuter1" stdDeviation="5"/><feColorMatrix in="shadowBlurOuter1" values="0 0 0 0 0.305882353 0 0 0 0 0.352941176 0 0 0 0 0.4 0 0 0 0.4 0"/></filter><linearGradient id="h" x1="21208%" x2="25877.25%" y1="6303%" y2="6303%"><stop offset="0%" stop-color="#FFF"/><stop offset="100%" stop-color="#00E8CC"/></linearGradient></defs><g fill="none" fill-rule="evenodd" transform="translate(10 16)"><use fill="#000" filter="url(#a)" xlink:href="#b"/><use fill="#001833" xlink:href="#b"/><path fill="#6948A1" d="M62 57h197.55a3 3 0 0 1 3 3v355.817a3 3 0 0 1-3 3H62a3 3 0 0 1-3-3V60a3 3 0 0 1 3-3z"/><g fill-rule="nonzero"><path fill="#311B58" d="M158.995 218.87c0-.753-.535-1.06-1.188-.68 0 0-2.518 1.464-4.422 2.363-2.287 1.083-5.885 2.036-8.162 2.476-1.48.286-1.692 1.228-1.764 2.104a90.404 90.404 0 0 0-.225 4.278c-.107 3.46-.417 7.074-.043 10.52.225 2.07.796 4.403 1.769 6.262a26.722 26.722 0 0 0 5.52 7.245c2.261 2.09 7.268 4.416 7.268 4.416.686.318 1.248-.037 1.248-.791V218.87z"/><path fill="#00E8CC" d="M153.347 222.645c-3.28 1.287-7.996 2.366-7.996 2.366-.136 1.733-.273 3.474-.326 5.214-.096 3.084-.372 6.306-.039 9.377.201 1.845.708 3.925 1.574 5.58 1.263 2.412 2.91 4.827 4.922 6.685 2.01 1.857 4.552 3.072 7.022 4.218l.489.225v-36.333a49.103 49.103 0 0 1-5.646 2.668z"/><path fill="#311B58" d="M163.008 257.06c0 .754.56 1.11 1.246.789 0 0 4.985-2.324 7.246-4.414a26.721 26.721 0 0 0 5.521-7.245c.973-1.857 1.544-4.19 1.769-6.262.374-3.444.064-7.06-.044-10.52a89.42 89.42 0 0 0-.224-4.278c-.072-.876-.285-1.819-1.764-2.104-2.276-.44-5.875-1.394-8.162-2.476-1.889-.894-4.399-2.348-4.399-2.348-.654-.38-1.19-.074-1.19.68v38.179z"/><path fill="#50239F" d="M163.48 256.085c2.468-1.146 5.006-2.356 7.021-4.218 2.015-1.862 3.659-4.273 4.922-6.684.865-1.656 1.376-3.736 1.573-5.58.334-3.072.057-6.294-.039-9.378-.054-1.74-.19-3.48-.326-5.214 0 0-4.716-1.08-7.995-2.366a49.065 49.065 0 0 1-5.63-2.661V256.3l.474-.216z"/><path fill="url(#c)" d="M12.886 14.236h8.11v8.616h-8.11z" transform="translate(143 218)"/><path fill="#00E8CC" d="M166.864 229.134h-15.53c-1.193-.023-2.147-1.016-2.147-2.232 0-1.216.954-2.209 2.147-2.231h15.53c1.193.022 2.148 1.015 2.148 2.231s-.955 2.209-2.148 2.232zm-.72 14.347h-14.81c-1.287 0-2.33-1.063-2.33-2.376 0-1.312 1.043-2.375 2.33-2.375h14.81c1.286 0 2.329 1.063 2.329 2.375 0 1.313-1.043 2.376-2.33 2.376z"/><path fill="#50239F" d="M166.864 247.948h-9.926c-1.193-.023-2.148-1.016-2.148-2.232 0-1.216.955-2.209 2.148-2.231h9.926c1.193.022 2.148 1.015 2.148 2.231s-.955 2.209-2.148 2.232z"/><path fill="url(#d)" d="M10.231 2.171V.003l-1.178.07v3.87h3.8v-.269h-1.148c-.814 0-1.474-.673-1.474-1.503z" transform="translate(149 221)"/><path fill="url(#e)" d="M10.231 33.888v.267-1.991l2.623-.049v.27h-1.149c-.39 0-.766.158-1.042.44a1.518 1.518 0 0 0-.432 1.063z" transform="translate(149 221)"/><path fill="#50239F" d="M164.594 235.727h-7.56c-1.77-.028-3.188-1.498-3.188-3.302s1.419-3.274 3.187-3.302h7.56c1.77.028 3.189 1.498 3.189 3.302s-1.42 3.274-3.188 3.302z"/><path fill="#00E8CC" d="M164.273 253.38h-6.65c-1.474 0-2.668-1.218-2.668-2.72 0-1.504 1.194-2.722 2.668-2.722h6.65c1.474 0 2.668 1.218 2.668 2.721 0 1.503-1.194 2.721-2.668 2.721z"/><path fill="#50239F" d="M170.957 238.73h-9.927c-.909-.02-1.635-.777-1.635-1.704 0-.927.726-1.684 1.635-1.704h9.927a1.664 1.664 0 0 1 1.477.84 1.734 1.734 0 0 1 0 1.726 1.664 1.664 0 0 1-1.477.842z"/></g><ellipse cx="160.439" cy="444.733" fill="#001833" stroke="#4E5A66" stroke-width="2" rx="18.376" ry="17.902"/><use fill="#000" filter="url(#f)" xlink:href="#g"/><use fill="#FFF" xlink:href="#g"/><path fill="#311B58" fill-rule="nonzero" d="M33.995 435.87c0-.753-.535-1.06-1.188-.68 0 0-2.518 1.464-4.422 2.363-2.287 1.083-5.885 2.036-8.162 2.476-1.48.286-1.692 1.228-1.764 2.104a90.404 90.404 0 0 0-.225 4.278c-.107 3.46-.417 7.074-.043 10.52.225 2.07.796 4.403 1.769 6.262a26.722 26.722 0 0 0 5.52 7.245c2.261 2.09 7.268 4.416 7.268 4.416.686.318 1.248-.037 1.248-.791V435.87z"/><path fill="#FFF" fill-rule="nonzero" d="M28.347 439.645c-3.28 1.287-7.996 2.366-7.996 2.366-.136 1.733-.273 3.474-.326 5.214-.096 3.084-.372 6.306-.039 9.377.201 1.845.708 3.925 1.574 5.58 1.263 2.412 2.91 4.827 4.922 6.685 2.01 1.857 4.552 3.072 7.022 4.218l.489.225v-36.333a49.103 49.103 0 0 1-5.646 2.668z"/><path fill="#311B58" fill-rule="nonzero" d="M38.008 474.06c0 .754.56 1.11 1.246.789 0 0 4.985-2.324 7.246-4.414a26.721 26.721 0 0 0 5.521-7.245c.973-1.857 1.544-4.19 1.769-6.262.374-3.444.064-7.06-.044-10.52a89.42 89.42 0 0 0-.224-4.278c-.072-.876-.285-1.819-1.764-2.104-2.276-.44-5.875-1.394-8.162-2.476-1.889-.894-4.399-2.348-4.399-2.348-.654-.38-1.19-.074-1.19.68v38.179z"/><path fill="#50239F" fill-rule="nonzero" d="M38.48 473.085c2.468-1.146 5.006-2.356 7.021-4.218 2.015-1.862 3.659-4.273 4.922-6.684.865-1.656 1.376-3.736 1.573-5.58.334-3.072.057-6.294-.039-9.378-.054-1.74-.19-3.48-.326-5.214 0 0-4.716-1.08-7.995-2.366a49.066 49.066 0 0 1-5.63-2.661V473.3l.474-.216z"/><path fill="#FFF" fill-rule="nonzero" d="M30.886 449.236h8.11v8.616h-8.11z"/><path fill="#FFF" fill-rule="nonzero" d="M41.864 446.134h-15.53c-1.193-.023-2.147-1.016-2.147-2.232 0-1.216.954-2.209 2.147-2.231h15.53c1.193.022 2.148 1.015 2.148 2.231s-.955 2.209-2.148 2.232zm-.72 14.347h-14.81c-1.287 0-2.33-1.063-2.33-2.376 0-1.312 1.043-2.375 2.33-2.375h14.81c1.286 0 2.329 1.063 2.329 2.375 0 1.313-1.043 2.376-2.33 2.376z"/><path fill="#50239F" fill-rule="nonzero" d="M41.864 464.948h-9.926c-1.193-.023-2.148-1.016-2.148-2.232 0-1.216.955-2.209 2.148-2.231h9.926c1.193.022 2.148 1.015 2.148 2.231s-.955 2.209-2.148 2.232z"/><path fill="url(#h)" fill-rule="nonzero" d="M34.231 440.171v-2.168l-1.178.07v3.87h3.8v-.269h-1.148c-.814 0-1.474-.673-1.474-1.503z"/><path fill="#FFF" fill-rule="nonzero" d="M34.231 471.888v.267-1.991l2.623-.049v.27h-1.149c-.39 0-.766.158-1.042.44a1.518 1.518 0 0 0-.432 1.063z"/><path fill="#50239F" fill-rule="nonzero" d="M39.594 452.727h-7.56c-1.77-.028-3.188-1.498-3.188-3.302s1.419-3.274 3.187-3.302h7.56c1.77.028 3.189 1.498 3.189 3.302s-1.42 3.274-3.188 3.302z"/><path fill="#FFF" fill-rule="nonzero" d="M39.273 470.38h-6.65c-1.474 0-2.668-1.218-2.668-2.72 0-1.504 1.194-2.722 2.668-2.722h6.65c1.474 0 2.668 1.218 2.668 2.721 0 1.503-1.194 2.721-2.668 2.721z"/><path fill="#50239F" fill-rule="nonzero" d="M45.957 455.73H36.03c-.909-.02-1.635-.777-1.635-1.704 0-.927.726-1.684 1.635-1.704h9.927a1.664 1.664 0 0 1 1.477.84 1.734 1.734 0 0 1 0 1.726 1.664 1.664 0 0 1-1.477.842z"/></g></svg>
